16x16/apps/org.laptop.TurtleArtActivity.svg

<svg xmlns="http://www.w3.org/2000/svg" width="16" height="16" version="1.1">
 <path style="fill:#134f13" d="M 10.28689,14.415683 9.9959675,14.51985 C 9.882856,14.56018 9.7759897,14.59896 9.6685867,14.627736 9.5044335,14.671726 9.3392232,14.705356 9.173795,14.728927 L 8.8531105,14.774317 10,16 Z"/>
 <path style="fill:#134f13" d="m 11.31193,1.9568658 c -0.178,-0.00737 -0.359898,0.011539 -0.540406,0.059906 -0.8526451,0.2284658 -1.4025175,1.0354463 -1.3372885,1.888303 l 0.019345,0.2527307 0.2365056,0.08986 C 10.321107,4.4884526 10.914206,4.8718476 11.424879,5.3790248 L 11.602102,5.555 11.837984,5.472005 C 12.720616,5.1628296 13.238549,4.2170433 12.992432,3.2985222 12.782819,2.5162328 12.083264,1.9888021 11.31193,1.9568658 Z"/>
 <path style="fill:#134f13" d="m 13.293591,10.396243 c -0.109349,-0.0052 -0.220189,-2.73e-4 -0.331359,0.01498 l -0.268955,0.03682 -0.06427,0.263339 c -0.180222,0.737074 -0.503572,1.405426 -0.944776,1.956946 l -0.172231,0.215289 0.140406,0.237754 c 0.403162,0.681275 1.223432,1.045805 2.02434,0.831203 0.962384,-0.25787 1.540388,-1.257363 1.282374,-2.220285 -0.208433,-0.777884 -0.900084,-1.29957 -1.665525,-1.33604 z"/>
 <path style="fill:#134f13" d="m 4.4341563,12.400877 -0.2452423,0.09111 c -0.8664419,0.319205 -1.3713482,1.255123 -1.1276152,2.164746 0.2578701,0.962384 1.2581969,1.539708 2.2209089,1.28175 0.8139158,-0.218088 1.3481539,-0.964338 1.338536,-1.772234 l -0.00373,-0.265835 -0.2464903,-0.09922 C 5.7289254,13.542715 5.1289193,13.129603 4.6151346,12.591205 Z"/>
 <path style="fill:#134f13" d="M 2.6689581,4.0202773 C 2.5609066,4.0287954 2.4521787,4.0467878 2.3438405,4.0758156 1.3811285,4.3337737 0.80359712,5.333717 1.061467,6.2961006 1.3130034,7.2348472 2.27051,7.8021516 3.2099889,7.5909547 L 3.4452468,7.5385368 3.5076491,7.3057749 C 3.6910994,6.6275707 4.0007642,6.0118949 4.4106152,5.495475 L 4.5616297,5.305147 4.4617855,5.0829939 C 4.1483207,4.3875627 3.42532,3.96064 2.6689581,4.0202773 Z"/>
 <path style="fill:#134f13" d="M 6.6407594,0.00205202 C 6.3975209,-0.00791294 6.1487464,0.01824325 5.9018554,0.08428981 4.5853502,0.43647331 3.7985685,1.79817 4.1513068,3.1124685 4.2880957,3.6221439 4.5777289,4.0536955 4.9548874,4.3679656 L 5.1995613,4.5714285 5.4485068,4.3734483 C 5.8704489,4.0385721 6.3486969,3.7853771 6.8829929,3.6424456 7.404578,3.5029142 7.9329014,3.4816834 8.4541544,3.5547253 l 0.3154529,0.04386 0.106778,-0.2997113 C 9.0381959,2.8440331 9.069586,2.3342168 8.9349609,1.8326046 8.6704073,0.84688055 7.8372904,0.15810131 6.8817727,0.02398207 6.802146,0.01280569 6.7218386,0.00537331 6.6407594,0.00205202 Z"/>
 <g style="fill:#00a000" transform="matrix(0.35583254,0.00894079,0.00922497,0.31389965,-2.0651061,-0.7950663)">
  <path style="fill:#35a535" transform="rotate(15,26.653467,29.784442)" d="m 26.080078,11.222656 c -1.129182,0.03488 -2.266168,0.199609 -3.394531,0.501953 -9.026904,2.418752 -14.0226678,12.778721 -11.332031,22.820313 1.300302,4.852795 4.228443,9.067138 8.193359,11.726562 3.96493,2.659518 8.668809,3.5361 13.03125,2.367188 4.362441,-1.168913 7.999545,-4.278779 10.103516,-8.564453 2.104005,-4.285587 2.532725,-9.401112 1.232421,-14.253907 C 41.559756,17.033919 33.984355,10.978519 26.080078,11.222656 Z"/>
 </g>
 <g style="fill:#00a000;stroke:#155715;stroke-width:1.5" transform="matrix(0.38917596,0.0107251,0.01106599,0.34003495,-3.0797361,-1.68748)">
  <path style="fill:none;stroke:#155715;stroke-width:1.5" d="m 25.875,33.75 -1.542,-4.625 3.164,-2.587 3.615,2.626 -1.487,4.669 z"/>
  <path style="fill:none;stroke:#155715;stroke-width:1.5" d="m 27.501,41.551 c -3.968,-0.16 -5.543,-2.009 -5.543,-2.009 l 3.57,-4.163 4.465,0.168 3.132,4.12 c 0,0 -2.89,1.994 -5.624,1.884 z"/>
  <path style="fill:none;stroke:#155715;stroke-width:1.5" d="m 18.453,33.843 c -0.849,-2.968 0.172,-6.884 0.172,-6.884 l 4,2.167 1.493,4.629 -3.582,4.233 c 0,-10e-4 -1.465,-1.99 -2.083,-4.145 z"/>
  <path style="fill:none;stroke:#155715;stroke-width:1.5" d="m 19.458,25.125 c 0,0 0.5,-1.958 3.039,-3.822 2.237,-1.643 4.465,-1.72 4.465,-1.72 l -0.037,4.981 -3.521,2.75 z"/>
  <path style="fill:none;stroke:#155715;stroke-width:1.5" d="M 32.084,27.834 28.625,24.959 29,19.75 c 0,0 1.834,-0.042 3.959,1.667 2.228,1.791 3.362,4.983 3.362,4.983 z"/>
  <path style="fill:none;stroke:#155715;stroke-width:1.5" d="m 31.292,34.042 1.313,-4.464 4.187,-1.536 c 0,0 0.677,2.663 -0.042,5.667 -0.54,2.256 -2.084,4.361 -2.084,4.361 z"/>
 </g>
</svg>

<svg xmlns="http://www.w3.org/2000/svg" width="16" height="16"><path style="fill:#134f13" d="m10.287 14.416-.291.104c-.113.04-.22.079-.327.108a4.2 4.2 0 0 1-.495.1l-.32.046L10 16zM11.312 1.957a1.816 1.816 0 0 0-1.878 1.948l.02.253.236.09c.631.24 1.224.624 1.735 1.131l.177.176.236-.083a1.814 1.814 0 0 0 1.154-2.173 1.82 1.82 0 0 0-1.68-1.342zM13.294 10.396c-.11-.005-.22 0-.332.015l-.269.037-.064.263a5.044 5.044 0 0 1-.945 1.957l-.172.216.14.237a1.813 1.813 0 0 0 2.025.832 1.82 1.82 0 0 0 1.282-2.22c-.208-.779-.9-1.3-1.665-1.337zM4.434 12.4l-.245.092a1.815 1.815 0 0 0-1.128 2.165 1.82 1.82 0 0 0 2.221 1.281 1.813 1.813 0 0 0 1.339-1.772l-.004-.266-.246-.099a5.055 5.055 0 0 1-1.756-1.21zM2.669 4.02a1.82 1.82 0 0 0-1.607 2.276A1.817 1.817 0 0 0 3.21 7.591l.235-.052.063-.233a5.014 5.014 0 0 1 .903-1.81l.15-.19-.1-.223A1.818 1.818 0 0 0 2.67 4.02zM6.64.002a2.478 2.478 0 0 0-2.49 3.11c.138.51.428.942.805 1.256l.245.203.249-.198c.421-.334.9-.588 1.434-.73.522-.14 1.05-.161 1.571-.088l.316.044.106-.3c.162-.455.194-.965.059-1.466A2.483 2.483 0 0 0 6.641.003z"/><g style="fill:#00a000"><path style="fill:#35a535" transform="matrix(.3461 .08988 -.08319 .30089 .947 -2.565)" d="M26.08 11.223c-1.13.035-2.266.2-3.394.502-9.027 2.418-14.023 12.778-11.332 22.82 1.3 4.853 4.228 9.067 8.193 11.726 3.965 2.66 8.669 3.537 13.031 2.368 4.363-1.17 8-4.28 10.104-8.565 2.104-4.285 2.532-9.4 1.232-14.254-2.354-8.786-9.93-14.841-17.834-14.597z"/></g><g style="fill:#00a000;stroke:#155715;stroke-width:1.5"><path style="fill:none;stroke:#155715;stroke-width:1.5" d="m25.875 33.75-1.542-4.625 3.164-2.587 3.615 2.626-1.487 4.669zM27.501 41.551c-3.968-.16-5.543-2.009-5.543-2.009l3.57-4.163 4.465.168 3.132 4.12s-2.89 1.994-5.624 1.884zM18.453 33.843c-.849-2.968.172-6.884.172-6.884l4 2.167 1.493 4.629-3.582 4.233c0-.001-1.465-1.99-2.083-4.145zM19.458 25.125s.5-1.958 3.039-3.822c2.237-1.643 4.465-1.72 4.465-1.72l-.037 4.981-3.521 2.75zM32.084 27.834l-3.459-2.875L29 19.75s1.834-.042 3.959 1.667c2.228 1.791 3.362 4.983 3.362 4.983zM31.292 34.042l1.313-4.464 4.187-1.536s.677 2.663-.042 5.667c-.54 2.256-2.084 4.361-2.084 4.361z" transform="matrix(.38918 .01073 .01107 .34003 -3.08 -1.687)"/></g></svg>
